packages/gestalt/src/icons/filter.svg

<svg width="24" height="24" xmlns="http://www.w3.org/2000/svg"><path fill="#B5B5B5" d="M24 3.5c0-1.1-.9-2-2-2H2c-1.1 0-2 .9-2 2 0 .55.22 1.05.58 1.41L9 13.46v9.04l6-2v-7.05l8.37-8.5c.39-.36.63-.88.63-1.45"/></svg>

<svg width="24" height="24" viewBox="0 0 24 24" xmlns="http://www.w3.org/2000/svg"><path fill="#B5B5B5" d="M24.00,3.50 C24.00,2.40 23.10,1.50 22.00,1.50 L2.00,1.50 C0.90,1.50 0.00,2.40 0.00,3.50 C0.00,4.05 0.22,4.55 0.58,4.91 L0.58,4.91 L9.00,13.46 L9.00,22.50 L15.00,20.50 L15.00,13.45 L23.37,4.95 C23.76,4.59 24.00,4.07 24.00,3.50"/></svg>
